X:3908
T:The Robertson Rant
P:Struan Robertson's Rant
C:Traditional
B:RSCDS 39-8
Z:Anselm Lingnau <anselm@strathspey.org>
R:Strathspey (1x80) See original book for complete arrangement
M:C
L:1/8
K:Em
e|"Em"E<E G>A B>A B<d|"D"D<D F>E D/E/F/G/ A<F|\
          "Em"E<E G>A B>A B<e|"Bm"d>B d>F "Em"E<E E||
g|"Em"e>f g>e b>e g>e|"D"f>e d>f a/g/f/e/ d<f|\
          "Em"e>f g>e b>e g>e|"(Bm)"d>B "A"A>F "Em"E<E E||
F|"Em"G>B E>B G>B E>B|"D"F>A D>A F>A D>A|\
          "Em"G>B E>B G>B E>g|"D"f>d a>f e2||
e>f|"Em"g<b e<b g<b e<b|"D"f<a d<a f<a d<a|\
          "Em"g<b e<b "D"f<a e<f|"Bm"d/^c/B/A/ d>F "Em"E<E E|]
